X:1
T:Going to the Well for Water
L:1/8
Q:1/8=350
M:12/8
I:linebreak $
K:D
V:1 treble 
V:1
 F2 A d2 F F2 A d2 F | e2 A cBA e2 A cBA | F2 A d2 F F2 A d2 F | e2 A cBA B2 c d3 :|$ %4
 a3 f2 e d3 def | g2 f e2 d Bcd efg | aga f2 e d2 c def | e2 A cBA B2 c d3 :| %8
